!!!!SEGMENT: pl-kc--40102-iii-1-saf--002-043_zielenski-mikolaj--communiones-totius-anni-feria-secunda-pentecostes-spiritus-sanctus-docebit-vos.krn
!!!cenid: 16xx:1574
!!!COM: Zieleński, Mikołaj
!!!COM-rismid: pe30013481
!!!CDT:
!!!CNT: Polish
!!!GTL: Communiones totius anni
!!!OTL: Feria Secunda Pentecostes/Spiritus Sanctus docebit vos
!!!OMV: 043
!!!PDT: 1611
!!!AGN:
!!!SMS-siglum: PL-Kc
!!!SMS-shelfmark: 40102 III/1 Saf.
!!!SMS-shelfwork: 002-043 G
!!!SMS-variant:
!!!SMS-altvar:
!!!NIFC-rismid: 990069887
!!!URL-scan: https://cyfrowe.mnk.pl/dlibra/publication/24235/edition/23926/content?ref=desc
!!!ONB-nifc: UWAGA: str. 67-68. Numer w źródle: 50 (nr 51 na dole str. 67 wygląda jedynie na adnotację). Uwaga: W xml metrum 2/1 do źródłowego C| i odpowiednio 3/1 do 3/2
!!!key: f:lid
**kern	**kern	**kern	**kern	**kern
*group1	*group1	*group1	*group1	*group1
*part5	*part4	*part3	*part2	*part1
*staff5	*staff4	*staff3	*staff2	*staff1
*I""Organo	*	*	*	*
*Iorgan	*Iorgan	*Iorgan	*Iorgan	*Iorgan
*ICklav	*ICklav	*ICklav	*ICklav	*ICklav
*clefF4	*clefC4	*clefC3	*clefC1	*clefC1
*k[b-]	*k[b-]	*k[b-]	*k[b-]	*k[b-]
*F:	*F:	*F:	*F:	*F:
*M2/1	*M2/1	*M2/1	*M2/1	*M2/1
*met(C|)	*met(C|)	*met(C|)	*met(C|)	*met(C|)
=1	=1	=1	=1	=1
!LO:TX:t=P:problem:all/middle:global	!LO:TX:t=P:problem:all/middle:global	!LO:TX:t=P:problem:all/middle:global	!LO:TX:t=P:problem:all/middle:global	!LO:TX:t=P:problem:all/middle:global
!LO:TX:t=P:problem:all\middle:global	!LO:TX:t=P:problem:all\middle:global	!LO:TX:t=P:problem:all\middle:global	!LO:TX:t=P:problem:all\middle:global	!LO:TX:t=P:problem:all\middle:global
!LO:TX:a:t=Alio modo, Semplice, Cantores cum Organo,& Inſtrumentis.  51.	!	!	!LO:TX:a:t=Spiritus ſanćtus docebit vos.	!LO:TX:a:t=50. Feria ſecunda Pentecoſtes. à 5.    Soli debent cantare cum Organo ſine Inſtrumentis.
00r	00r	2r	2r	2r
.	.	2.F/	2.a\	2.cc\
.	.	4F/	4a\	4cc\
.	.	2G/	1g\	2b-\
=2-	=2-	=2-	=2-	=2-
.	.	4A/	.	1a
.	.	4F/	.	.
.	.	4A/	2f/	.
.	.	4B-/	.	.
.	.	2c/	2e/	2g/
.	.	2A/	2a\	2cc\
=3	=3	=3	=3	=3
1r	1r	2B-/	4g/	2b-\
.	.	.	2f/	.
.	.	2c/	.	2g/
.	.	.	4e/	.
2r	2r	2F/	1f	1a
2.FF/	2.A/	2.c/	.	.
=4-	=4-	=4-	=4-	=4-
.	.	.	0r	0r
4FF/	4A/	4c/	.	.
2GG/	1G	2B-/	.	.
4AA/	.	1A	.	.
4FF/	.	.	.	.
4AA/	2F/	.	.	.
4BB-/	.	.	.	.
=5	=5	=5	=5	=5
2C/	2E/	2G/	0r	0r
2AA/	2A/	2c/	.	.
2BB-/	4G/	2B-/	.	.
.	2F/	.	.	.
2C/	.	2G/	.	.
.	4E/	.	.	.
=6-	=6-	=6-	=6-	=6-
1FF	1F	1A	1r	1r
2r	2r	2r	2r	2r
[y2F\	[y2A/	[y2c/	[y2a\	[y2cc\
=7	=7	=7	=7	=7
!LO:N:xstem:cue	!LO:N:xstem:cue	!LO:N:xstem:cue	!LO:N:xstem:cue	!LO:N:xstem:cue
4F]	4A]	4c]	4a]	4cc]
4F\	4A/	4c/	4a\	4cc\
2D/	2A/	2f\	2a\	2dd\
2.G\	4G/	2d\	2b-\	2.b-\
.	4A/	.	.	.
.	4B-\	2d\	2dd\	.
4F\	4F/	.	.	4a\
=8-	=8-	=8-	=8-	=8-
*	*	*	*lig	*
2E-X\	2G/	0g	1ee-X	4b-\
.	.	.	.	4g/
4D/	2G/	.	.	2.cc\
4C/	.	.	.	.
2G\	1G	.	1dd	.
!	!	!	!	!LO:N:acc=#
.	.	.	.	8bn\
.	.	.	.	8a\
!	!	!	!	!LO:SIC:v:s:t=2bn\
2GG/	.	.	.	2b-y\
*	*	*	*	*met(c|)
*	*	*	*Xlig	*
=9	=9	=9	=9	=9
!LO:TX:b:t=Alio modo, Semplice, Cantores cum Organo,& Inſtrumentis.  51.	!	!	!	!
2C/	2G/	2.e\	2.cc\	2.cc\
2AA/	2C/	.	.	.
.	.	4f\	4a\	4cc\
2BB-/	2D/	2d\	4g/	2b-\
.	.	.	4.f/	.
2C/	2G/	2c/	.	2g/
.	.	.	16e/	.
.	.	.	16d/	.
.	.	.	4e/	.
=10-	=10-	=10-	=10-	=10-
1FF	1F	2c/	2f/	2a\
.	.	4r	2a\	2cc\
.	.	4f\	.	.
1r	1r	2d\	2dd\	2ff\
!	!	!	!LO:N:acc=#	!
.	.	2g\	2bn\	2dd\
=11	=11	=11	=11	=11
2r	2r	1c	2.cc\	2.ee\
2AA/	4A/	.	.	.
.	4G/	.	4cc\	4ff\
*	*	*	*	*lig
1BB-	4F/	2r	2b-\	1dd
.	4E/	.	.	.
.	4D/	2f\	2b-\	.
.	2B-\	.	.	.
=12-	=12-	=12-	=12-	=12-
1.C	.	2e\	2g/	1.cc
.	4A/	.	.	.
.	4A/	2.f\	2a\	.
.	8G/	.	.	.
.	8F/	.	.	.
.	2G/	.	2g/	.
.	.	8e\	.	.
.	.	8d\	.	.
*	*	*	*	*Xlig
2C/	2G/	2e\	2g/	2cc\
=13	=13	=13	=13	=13
2FF/	2F/	2.f\	1a	1cc
2F\	2A/	.	.	.
.	.	4c/	.	.
2D/	4d\	4f\	1r	1r
!	!LO:N:acc=#	!	!	!
.	4Bn\	4d\	.	.
2C/	4c\	4e\	.	.
.	4A/	4c/	.	.
=14-	=14-	=14-	=14-	=14-
!	!LO:SIC:v:s:t=4Bn\	!	!	!
2BB-/	4B-y\	4d\	2r	2r
.	4G/	4B-/	.	.
2AA/	4A/	4c/	4r	4r
.	4A/	4c/	4a\	4cc\
2GG/	2D/	2G/	4b-\	4dd\
.	.	.	4g/	4b-\
2FF/	2F/	[<2c/	4a\	4cc\
.	.	.	8g/	8b-\
.	.	.	8f/	8a\
=15	=15	=15	=15	=15
1C	2G/	2c/]	2e/	4g/
.	.	.	.	4cc\
.	2c\	2g\	4r	4ee\
.	.	.	4cc\	4ee\
1r	2B-\	1r	4dd\	4ff\
.	.	.	4b-\	4dd\
.	2A/	.	4cc\	4ee\
.	.	.	4a\	4cc\
=16-	=16-	=16-	=16-	=16-
!LO:TX:b:t=Partitura Niclai Zielenski.	!	!	!	!
0r	2G/	0r	4b-\	4dd\
.	.	.	4g/	4b-\
.	2F/	.	2a\	2cc\
.	2B-\	.	2g/	2b-\
.	2F/	.	2f/	2a\
=17	=17	=17	=17	=17
2r	2.c\	2r	1e	1g
2C/	.	2g\	.	.
.	4c\	.	.	.
4D/	4A/	2f\	1r	2r
4BB-/	4B-\	.	.	.
4C/	4G/	2e\	.	4r
4AA/	4A/	.	.	4cc\
=18	=18	=18	=18	=18
4BB-/	4F/	2d\	1r	2b-X\
4GG/	4G/	.	.	.
4AA/	4E/	2.c/	.	2a\
4FF/	4F/	.	.	.
2C/	2E/	.	4r	2g/
.	.	4G/	4g/	.
!LO:TX:b:t=I	!	!	!	!
2AA/	[<2F/	2A/	4cc\	4r
.	.	.	4a\	4cc\
!LO:SIC:v:t=custos BB-	!LO:SIC:v:t=custos F	!LO:SIC:v:t=custos d	!LO:SIC:v:t=custos f	!LO:SIC:v:t=custos b-
!LO:PB:g=original	!LO:PB:g=original	!LO:PB:g=original	!LO:PB:g=original	!LO:pB:g=original
=19	=19	=19	=19	=19
1BB-	2F/]	1d	4.f/	4b-\
.	.	.	.	4a\
.	.	.	8f/	.
.	1G	.	4b-\	4g/
.	.	.	4a\	4f/
2.C/	.	2e\	4g/	2e/
.	.	.	4f/	.
.	2G/	2c/	4e/	2.g/
4BB-/	.	.	4d/	.
=20-	=20-	=20-	=20-	=20-
2AA/	1A	0c	2c/	.
.	.	.	.	4f/
2FF/	.	.	1cc	2.f/
1C	1G	.	.	.
.	.	.	.	8e/
.	.	.	.	8d/
.	.	.	2g/	2e/
=21	=21	=21	=21	=21
2FF/	2F/	2c/	1a	1f
2F\	2A/	2c/	.	.
2F\	2A/	2c/	1r	1r
4E\	4G/	4c/	.	.
4E\	4G/	4c/	.	.
=22-	=22-	=22-	=22-	=22-
2F\	2A/	4d\	0r	0r
.	.	4c/	.	.
2F\	2A/	2.c/	.	.
1D	2A/	.	.	.
!	!	!LO:N:acc=#	!	!
.	.	8Bn/	.	.
.	.	8A/	.	.
!	!	!LO:SIC:v:s:t=2Bn/	!	!
.	4G/	2B-y/	.	.
.	4F/	.	.	.
=23	=23	=23	=23	=23
1C	1G	2c/	2r	2r
.	.	2c/	2e/	2g/
1r	1r	2c/	2e/	2g/
.	.	4A/	4f/	4a\
.	.	4A/	4f/	4a\
=24-	=24-	=24-	=24-	=24-
0r	0r	2B-/	2d/	2f/
.	.	2G/	4g/	2b-\
.	.	.	2g/	.
.	.	1d	.	1a
.	.	.	8f#X/	.
.	.	.	8e/	.
!	!	!	!LO:SIC:v:s:t=2f#	!
.	.	.	2fny/	.
=25	=25	=25	=25	=25
2r	2r	2G/	2g/	2g/
2C/	2G/	2c/	2e/	2g/
2C/	2G/	2c/	2e/	2g/
2AA/	2A/	2c/	2f/	2cc\
=26-	=26-	=26-	=26-	=26-
2.D/	2.F/	1.d	1.f	2b-\
.	.	.	.	1a
4E\	4G/	.	.	.
4F\	4A/	.	.	.
4E\	4G/	.	.	.
4D/	4F/	1f\	[y2b-\	[y2dd\
4C/	4E/	.	.	.
=27	=27	=27	=27	=27
!	!	!	!LO:N:xstem:cue	!LO:N:xstem:cue
2BB-/	2D/	.	4b-]	4dd]
.	.	.	4a\	4cc\
2C/	2G/	2e\	4g/	2.cc\
.	.	.	4f/	.
1G	1G	1d	2g/	.
!	!	!	!	!LO:N:acc=#
.	.	.	.	8bn\
.	.	.	.	8a\
!	!	!	!	!LO:SIC:v:s:t=2bn\
.	.	.	2g/	2b-y\
=28-	=28-	=28-	=28-	=28-
2C/	2G/	2e\	2g/	1cc
2F\	2A/	4r	2r	.
.	.	4c/	.	.
2D/	4d\	4f\	1r	1r
!	!LO:N:acc=#	!	!	!
.	4Bn\	4d\	.	.
2C/	4c\	4e\	.	.
!	!	!LO:SIC:v:s:t=4A/	!	!
.	4A/	4B-/	.	.
=29	=29	=29	=29	=29
2BB-/	4B-\	4d\	2r	2r
.	4G/	4B-/	.	.
2AA/	4A/	4c/	4r	4r
.	4A/	4c/	4cc\	4a\
2GG/	2D/	2G/	4dd\	4b-\
.	.	.	4b-\	4g/
2FF/	2F/	1c\	4cc\	4a\
.	.	.	8b-\	8g/
.	.	.	8a\	8f/
=30-	=30-	=30-	=30-	=30-
1C	2G/	.	4g/	2e/
.	.	.	4cc\	.
.	2c\	2g\	4ee\	4r
.	.	.	4ee\	4cc\
1r	2B-\	1r	4ff\	4dd\
.	.	.	4dd\	4b-\
.	2A/	.	4ee\	4cc\
.	.	.	4cc\	4a\
=31	=31	=31	=31	=31
0r	2G/	0r	4dd\	4b-\
.	.	.	4b-\	4g/
.	2F/	.	4cc\	4a\
.	.	.	8b-\	4f/
.	.	.	8a\	.
.	2B-\	.	2b-\	2g/
.	2F/	.	2a\	2f/
=32-	=32-	=32-	=32-	=32-
2r	2.c\	2r	1g	1e
2C/	.	2g\	.	.
.	4c\	.	.	.
4D/	4A/	2f\	2r	1r
4BB-/	4B-\	.	.	.
4C/	4G/	2e\	4r	.
4AA/	4A/	.	4cc\	.
=33	=33	=33	=33	=33
4BB-/	4F/	2d\	2b-\	1r
4GG/	4G/	.	.	.
4AA/	4E/	2.c/	2a\	.
4FF/	4F/	.	.	.
2C/	2E/	.	2g/	4r
.	.	4G/	.	4g/
2FF/	1F/	2A/	4r	4cc\
.	.	.	4cc\	4a\
=34-	=34-	=34-	=34-	=34-
1BB-	.	1d	4b-\	4.f/
.	.	.	4a\	.
.	.	.	.	8f/
.	1G	.	4g/	4b-\
.	.	.	4f/	4a\
2.C/	.	2e\	2e/	4g/
.	.	.	.	4f/
.	2G/	2c/	[y2g/	4e/
4BB-/	.	.	.	4d/
=35	=35	=35	=35	=35
!	!	!	!LO:N:xstem:cue	!
2AA/	1A	0c	4g/]	2c/
.	.	.	4f/	.
2FF/	.	.	2.f/	1cc
1C	1G	.	.	.
.	.	.	8e/	.
.	.	.	8d/	.
.	.	.	2e/	2g/
=36-	=36-	=36-	=36-	=36-
2FF/	2F/	1.c	1.f	2.a\
2.F\	1A	.	.	.
.	.	.	.	4b-\
.	.	.	.	2cc\
4E\	.	.	.	.
4D/	2A/	[<2F/	[y2ff\	[y2dd\
4C/	.	.	.	.
=37	=37	=37	=37	=37
*	*lig	*	*	*
!	!	!	!LO:N:xstem:cue	!LO:N:xstem:cue
1.BB-	1B-	2F/]	4ff]	4dd]
.	.	.	4ee\	4cc\
.	.	2f\	4dd\	4b-\
.	.	.	4cc\	4a\
.	1F	2d\	2b-\	4b-\
.	.	.	.	4f/
2AA/	.	2c/	2cc\	2a\
*	*Xlig	*	*	*
=38-	=38-	=38-	=38-	=38-
1BB-	[0Fl/	1B-	1.dd	2f/
.	.	.	.	1b-
[00FFl/	.	[00fl\	.	.
.	.	.	4cc\	4a\
.	.	.	4b-\	4g/
=39-	=39-	=39-	=39-	=39-
.	00F]	.	00cc\	00a\
1FF]	.	1f]	.	.
==	==	==	==	==
*-	*-	*-	*-	*-
!!!system-decoration: g1
!!!RDF**kern: l = terminal long
!!!RDF**kern: > = above
!!!RDF**kern: < = below
!!!ENC: Filip Voros
!!!END: 2021-12-22
!!!EED: Jędrzej Mróz
!!!EST: 2021-12-27
